X: 22812
T: Lansdowne Lass, The
R: reel
M: 4/4
K: Gmajor
A|B2ge dBGA|BdBG AGEG|D2 GF GABd|gedB ABGA|
Bdge dBGA|BdBG AGEG|DGGF GABd|gedB G3:|
|:A|BG~G2 dG~G2|~g2 fg dG~G2|DGGA BABd|eaag a2ga|
~b2 af gede|~g2 fg dBAB|~G2 GF Ggfe|dBAB G3:|

